packages/definitions/src/definitions/pl/u/unison/unison.logo.svg

<svg width="100%" height="100%" viewBox="0 0 14 14" fill="none" xmlns="http://www.w3.org/2000/svg">
        <title>Unison Logo</title>
        <path fill-rule="evenodd" clip-rule="evenodd" d="M12.4255 3.88396C12.5728 4.03084 12.5728 4.27245 12.4255 4.41933C12.2781 4.56611 12.0357 4.56611 11.8883 4.41933C11.8181 4.34848 11.7786 4.25278 11.7786 4.15318C11.7786 3.94545 11.9502 3.77451 12.1586 3.77451C12.2585 3.77451 12.3545 3.81375 12.4256 3.88368L12.4255 3.88396ZM10.101 2.67362C10.3854 2.73037 10.6635 2.81492 10.9313 2.92603C11.1184 3.00356 11.2086 3.22155 11.1313 3.40898C11.0744 3.54687 10.9395 3.63726 10.7905 3.63726C10.7421 3.63726 10.6941 3.62769 10.6493 3.60909H10.6486C10.4285 3.51767 10.2 3.44784 9.9664 3.40056C9.96017 3.39947 9.95406 3.39825 9.94783 3.39689C9.72002 3.35208 9.48851 3.32893 9.25636 3.32775H9.23738C8.71087 3.32772 8.22275 3.04541 7.9594 2.58858C7.95777 2.58573 7.95601 2.58274 7.95452 2.57975C7.71294 2.16293 7.39237 1.79741 7.01087 1.50381C5.39448 0.260973 3.07902 0.566435 1.83819 2.18619C1.76839 2.27743 1.65998 2.33102 1.54526 2.33102C1.34279 2.33102 1.17619 2.16408 1.17619 1.96122C1.17619 1.8799 1.20296 1.80079 1.25233 1.73625C1.25613 1.73136 1.26006 1.7266 1.26399 1.72185C1.61619 1.266 2.05371 0.883267 2.55202 0.595099C4.66885 -0.629803 7.37586 0.0968651 8.59893 2.21798V2.21866L8.60205 2.22395C8.73138 2.44458 8.96621 2.58275 9.22152 2.58844H9.23793C9.52789 2.58843 9.81717 2.61696 10.1016 2.67362H10.101ZM0.938748 7.40106C0.941867 7.39509 0.945394 7.38913 0.94892 7.38329C1.07449 7.15898 1.07413 6.88464 0.947971 6.66067C0.944309 6.65456 0.940918 6.64846 0.937527 6.64235C0.355767 5.62773 0.198945 4.42288 0.5016 3.29314C0.544712 3.1323 0.691589 3.01961 0.858114 3.01961C1.06059 3.01961 1.22721 3.18621 1.22721 3.38869C1.22721 3.42096 1.22298 3.45308 1.21463 3.48424C0.962375 4.42608 1.09339 5.43053 1.5788 6.27616C1.58287 6.28294 1.58681 6.28986 1.5906 6.29691C1.84472 6.74743 1.84426 7.2998 1.58938 7.7499C1.58464 7.75844 1.57975 7.76699 1.57433 7.77526C1.33695 8.19126 1.18276 8.64948 1.12036 9.12436C0.854384 11.1452 2.27678 12.9983 4.29772 13.2644V13.2652C4.48043 13.2893 4.61854 13.4467 4.61854 13.631C4.61854 13.6471 4.61748 13.6632 4.61538 13.6792C4.58897 13.8796 4.40247 14.023 4.20196 13.9969H4.20264C3.62598 13.9209 3.06993 13.732 2.56636 13.4409C0.449924 12.2202 -0.276801 9.51768 0.938748 7.40106ZM1.57567 7.83712C1.58516 7.82889 1.59391 7.82021 1.60185 7.81114L1.60287 7.80994C1.59462 7.81942 1.58554 7.8285 1.57567 7.83712ZM5.92411 13.9186C5.72232 13.9723 5.51173 13.8517 5.45758 13.6515C5.40344 13.4511 5.52504 13.2419 5.72697 13.1882C5.75772 13.1804 5.78932 13.1765 5.82104 13.1765C6.03004 13.1765 6.20202 13.3472 6.20202 13.5546C6.20202 13.7235 6.08803 13.8728 5.92425 13.9186H5.92411ZM9.26784 11.4315C9.00745 11.4315 8.76555 11.5688 8.63223 11.7921C8.6306 11.7952 8.62883 11.7983 8.62706 11.8013C8.48168 12.0527 8.31191 12.2891 8.12021 12.5073C8.18166 12.4372 8.1818 12.4376 8.12021 12.5073C8.1164 12.5116 8.11259 12.5158 8.10865 12.5199C7.91991 12.733 7.71107 12.9275 7.48501 13.1007C7.32408 13.2241 7.08995 13.1935 6.96633 13.0328C6.84279 12.8721 6.87348 12.6384 7.03431 12.5149C7.22655 12.3676 7.40383 12.2017 7.56359 12.0198C7.50432 12.0877 7.50418 12.0868 7.56359 12.0198C7.56822 12.0146 7.57284 12.0096 7.57719 12.0048C7.72865 11.8304 7.86338 11.6421 7.97963 11.4425C7.9818 11.4384 7.98411 11.4345 7.98642 11.4304C8.25061 10.9746 8.73969 10.693 9.26716 10.693C9.75298 10.693 10.2341 10.5974 10.6829 10.4117C12.5666 9.63257 13.4634 7.47928 12.6898 5.5967C12.6881 5.59317 12.6865 5.5895 12.685 5.58583C12.6673 5.54197 12.6582 5.49512 12.6582 5.44783C12.6582 5.24519 12.8252 5.07843 13.0282 5.07843C13.176 5.07843 13.3102 5.16691 13.3684 5.30264C13.5915 5.84064 13.7063 6.41731 13.7063 6.99964C13.7063 9.4478 11.7188 11.4325 9.26702 11.4325L9.26784 11.4315ZM8.90925 4.10364C9.00698 4.09299 9.10507 4.08713 9.20352 4.08604C9.21359 4.08594 9.22367 4.08589 9.23375 4.08589C10.8564 4.08589 12.1917 5.41648 12.1917 7.03349C12.1917 8.65049 10.8564 9.9811 9.23375 9.9811C9.12557 9.9811 9.01746 9.97518 8.90993 9.96337C8.3027 9.91688 7.726 10.2485 7.46261 10.7957C6.99167 11.865 5.9257 12.5588 4.7539 12.5588C3.13114 12.5588 1.79581 11.2282 1.79581 9.61109C1.79581 8.97743 2.00085 8.36035 2.38034 7.85191C2.71505 7.35132 2.71057 6.69472 2.36906 6.19873C2.33374 6.15062 2.29991 6.10156 2.26757 6.05156C1.96073 5.5761 1.79753 5.02257 1.79753 4.45727C1.79753 2.84034 3.13273 1.5098 4.75535 1.5098C5.92658 1.5098 6.99212 2.20304 7.46329 3.27157C7.72665 3.81823 8.30274 4.14967 8.90952 4.10364H8.90925ZM2.91426 10.7573C3.30758 11.4466 4.03686 11.8726 4.82354 11.8726C6.03297 11.8726 7.02818 10.8657 7.02818 9.64216C7.02818 8.4186 6.03297 7.41177 4.82354 7.41177C4.43655 7.41177 4.0563 7.51485 3.72116 7.71062C2.67393 8.32252 2.30972 9.69771 2.91426 10.7573ZM7.32043 8.14944C7.71374 8.83871 8.44305 9.26471 9.22974 9.26471C10.4392 9.26471 11.4344 8.25788 11.4344 7.03431C11.4344 5.81076 10.4392 4.80392 9.22974 4.80392C8.84279 4.80392 8.46258 4.90699 8.12747 5.10272C7.08019 5.71456 6.71592 7.08977 7.32043 8.14944ZM4.82575 6.65686C6.03408 6.65648 7.02818 5.64976 7.02818 4.42647C7.02818 3.20292 6.03366 2.19608 4.82508 2.19608C3.61648 2.19608 2.62197 3.20292 2.62197 4.42647C2.62197 4.42661 2.62197 4.42674 2.62197 4.42688C2.62227 5.65031 3.61675 6.65686 4.82521 6.65686C4.82539 6.65686 4.82556 6.65686 4.82575 6.65686Z" fill="currentColor"></path>
      </svg>

<svg xmlns="http://www.w3.org/2000/svg" fill="none" viewBox="0 0 14 14"><path fill="currentColor" fill-rule="evenodd" d="M12.426 3.884a.38.38 0 1 1-.647.27.381.381 0 0 1 .647-.27M10.1 2.674q.428.084.83.252a.37.37 0 0 1-.282.683 3.7 3.7 0 0 0-1.393-.281h-.019a1.48 1.48 0 0 1-1.278-.74l-.004-.008a3.684 3.684 0 0 0-6.116-.394.37.37 0 1 1-.575-.464 4.422 4.422 0 0 1 7.335.496l.003.006c.13.22.364.359.62.364h.016q.437 0 .864.086zM.939 7.4l.01-.018a.74.74 0 0 0-.011-.74 4.43 4.43 0 0 1-.436-3.35.37.37 0 0 1 .713.191 3.7 3.7 0 0 0 .376 2.813 1.48 1.48 0 0 1-.017 1.478 3.693 3.693 0 0 0 2.724 5.49.37.37 0 0 1 .317.414.37.37 0 0 1-.413.318A4.427 4.427 0 0 1 .939 7.4m.637.436.026-.026V7.81zm4.348 6.082a.383.383 0 0 1-.466-.268.38.38 0 0 1 .363-.474c.209 0 .381.17.381.378a.38.38 0 0 1-.278.364m3.344-2.488a.74.74 0 0 0-.64.37 4.4 4.4 0 0 1-.508.706q.093-.105 0 0l-.011.013a4.4 4.4 0 0 1-.624.58.37.37 0 0 1-.519-.067.37.37 0 0 1 .068-.518q.29-.221.53-.495-.09.101 0 0l.013-.015q.228-.263.403-.562l.006-.013a1.48 1.48 0 0 1 1.281-.737 3.692 3.692 0 0 0 3.418-5.107.37.37 0 0 1 .343-.508.37.37 0 0 1 .34.225 4.436 4.436 0 0 1-4.101 6.13zm-.359-7.327a3 3 0 0 1 .325-.018c1.622 0 2.958 1.33 2.958 2.947s-1.336 2.948-2.958 2.948q-.163 0-.324-.018a1.48 1.48 0 0 0-1.447.833 2.96 2.96 0 0 1-2.71 1.763c-1.622 0-2.957-1.33-2.957-2.948 0-.634.205-1.25.584-1.76.335-.5.33-1.156-.01-1.652a2.94 2.94 0 0 1-.572-1.741c0-1.618 1.335-2.948 2.957-2.948 1.172 0 2.237.693 2.708 1.762.264.546.84.878 1.447.832m-5.995 6.653a2.2 2.2 0 0 0 1.91 1.116c1.209 0 2.204-1.007 2.204-2.23s-.995-2.231-2.204-2.231c-.387 0-.768.103-1.103.299-1.047.612-1.411 1.987-.807 3.046M7.32 8.15a2.2 2.2 0 0 0 1.91 1.116c1.21 0 2.204-1.007 2.204-2.23S10.44 4.803 9.23 4.803c-.387 0-.767.103-1.103.299-1.047.612-1.411 1.987-.807 3.046M4.826 6.657c1.208 0 2.202-1.007 2.202-2.23s-.994-2.23-2.203-2.23-2.203 1.006-2.203 2.23.995 2.23 2.203 2.23" clip-rule="evenodd"/></svg>
